assets/archive-1.svg

<svg xmlns="http://www.w3.org/2000/svg" fill="none" viewBox="0 0 24 21">
  <path fill="#2A2238" d="M0 1.5C0 1.10218.158035.720644.43934.43934.720644.158035 1.10218 0 1.5 0h21c.3978 0 .7794.158035 1.0607.43934C23.842.720644 24 1.10218 24 1.5v3c0 .39782-.158.77936-.4393 1.06066C23.2794 5.84196 22.8978 6 22.5 6v11.25c0 .9946-.3951 1.9484-1.0984 2.6517C20.6984 20.6049 19.7446 21 18.75 21H5.25c-.99456 0-1.94839-.3951-2.65165-1.0983C1.89509 19.1984 1.5 18.2446 1.5 17.25V6c-.39782 0-.779356-.15804-1.06066-.43934C.158035 5.27936 0 4.89782 0 4.5v-3ZM3 6v11.25c0 .5967.23705 1.169.65901 1.591.42196.4219.99425.659 1.59099.659h13.5c.5967 0 1.169-.2371 1.591-.659.4219-.422.659-.9943.659-1.591V6H3Zm19.5-4.5h-21v3h21v-3Zm-15 8.25c0-.19891.07902-.38968.21967-.53033C7.86032 9.07902 8.05109 9 8.25 9h7.5c.1989 0 .3897.07902.5303.21967.1407.14065.2197.33142.2197.53033 0 .19891-.079.3897-.2197.5303-.1406.1407-.3314.2197-.5303.2197h-7.5c-.19891 0-.38968-.079-.53033-.2197C7.57902 10.1397 7.5 9.94891 7.5 9.75Z"/>
</svg>

<svg width="24" height="21" viewBox="0 0 24 21" fill="none" xmlns="http://www.w3.org/2000/svg">
<path d="M0 1.5C0 1.10218 0.158035 0.720644 0.43934 0.43934C0.720644 0.158035 1.10218 0 1.5 0H22.5C22.8978 0 23.2794 0.158035 23.5607 0.43934C23.842 0.720644 24 1.10218 24 1.5V4.5C24 4.89782 23.842 5.27936 23.5607 5.56066C23.2794 5.84196 22.8978 6 22.5 6V17.25C22.5 18.2446 22.1049 19.1984 21.4016 19.9017C20.6984 20.6049 19.7446 21 18.75 21H5.25C4.25544 21 3.30161 20.6049 2.59835 19.9017C1.89509 19.1984 1.5 18.2446 1.5 17.25V6C1.10218 6 0.720644 5.84196 0.43934 5.56066C0.158035 5.27936 0 4.89782 0 4.5V1.5ZM3 6V17.25C3 17.8467 3.23705 18.419 3.65901 18.841C4.08097 19.2629 4.65326 19.5 5.25 19.5H18.75C19.3467 19.5 19.919 19.2629 20.341 18.841C20.7629 18.419 21 17.8467 21 17.25V6H3ZM22.5 1.5H1.5V4.5H22.5V1.5ZM7.5 9.75C7.5 9.55109 7.57902 9.36032 7.71967 9.21967C7.86032 9.07902 8.05109 9 8.25 9H15.75C15.9489 9 16.1397 9.07902 16.2803 9.21967C16.421 9.36032 16.5 9.55109 16.5 9.75C16.5 9.94891 16.421 10.1397 16.2803 10.2803C16.1397 10.421 15.9489 10.5 15.75 10.5H8.25C8.05109 10.5 7.86032 10.421 7.71967 10.2803C7.57902 10.1397 7.5 9.94891 7.5 9.75Z" fill="#2A2238"/>
</svg>
